X: 131009
T: PIBROCH OF DONALD DHU
Q: "Scotch Jig."
R: Jig.
%R: jig
B: James Kerr "Merry Melodies" v.1 p.31 s.0 #9
Z: 2016 John Chambers <jc:trillian.mit.edu>
M: 6/8
L: 1/8
K: A
[|\
ve<cc f>ga | e<cc c>BA | e<cc f>ga | e<cA {c}B2uA |\
e<cc f<dd |  e<cc cBA | B<Bc d>ef | e<cA B2A |
a>ee a>ff | a>cc cBA | a>ee a>ff | ecA B2uA |\
a>ee a>ff | a>cc cBA | B<Bc d>ef | ecA B2A |]

%%sep 1 1 500
%%sep 1 1 500

